collectives/static/img/icon/ionicon/md-trash.svg

<svg enable-background="new 0 0 512 512" height="512" viewBox="0 0 512 512" width="512" xmlns="http://www.w3.org/2000/svg"><path d="m128 405.429c0 23.417 19.198 42.571 42.667 42.571h170.667c23.468 0 42.666-19.154 42.666-42.571v-245.429h-256zm288-309.429h-80l-26.785-32h-106.429l-26.786 32h-80v32h320z"/></svg>

<?xml version="1.0" encoding="utf-8"?>
<!-- Generator: Adobe Illustrator 16.2.1, SVG Export Plug-In . SVG Version: 6.00 Build 0)  -->
<!DOCTYPE svg PUBLIC "-//W3C//DTD SVG 1.1//EN" "http://www.w3.org/Graphics/SVG/1.1/DTD/svg11.dtd">
<svg version="1.1" id="Layer_1" xmlns="http://www.w3.org/2000/svg" xmlns:xlink="http://www.w3.org/1999/xlink" x="0px" y="0px"
	 width="512px" height="512px" viewBox="0 0 512 512" enable-background="new 0 0 512 512" xml:space="preserve">
<g>
	<path d="M128,405.429C128,428.846,147.198,448,170.667,448h170.667C364.802,448,384,428.846,384,405.429V160H128V405.429z M416,96
		h-80l-26.785-32H202.786L176,96H96v32h320V96z"/>
</g>
</svg>
